assets/icons/qvision/shuffle_on.svg

<svg xmlns="http://www.w3.org/2000/svg" height="24" viewBox="0 0 24 24" width="24"><path d="M0 0h24v24H0V0z" fill="none"/><path d="M21 1H3c-1.1 0-2 .9-2 2v18c0 1.1.9 2 2 2h18c1.1 0 2-.9 2-2V3c0-1.1-.9-2-2-2zM10.59 9.17L5.41 4 4 5.41l5.17 5.17 1.42-1.41zM14.5 4l2.04 2.04L4 18.59 5.41 20 17.96 7.46 20 9.5V4h-5.5zm.33 9.41l-1.41 1.41 3.13 3.13L14.5 20H20v-5.5l-2.04 2.04-3.13-3.13z" fill-rule="evenodd"/></svg>

<svg width="24" height="24" viewBox="0 0 24 24" fill="none" xmlns="http://www.w3.org/2000/svg">
<g clip-path="url(#clip0_147_1641)">
<path fill-rule="evenodd" clip-rule="evenodd" d="M21 1H3C1.9 1 1 1.9 1 3V21C1 22.1 1.9 23 3 23H21C22.1 23 23 22.1 23 21V3C23 1.9 22.1 1 21 1ZM10.59 9.17L5.41 4L4 5.41L9.17 10.58L10.59 9.17ZM14.5 4L16.54 6.04L4 18.59L5.41 20L17.96 7.46L20 9.5V4H14.5ZM14.83 13.41L13.42 14.82L16.55 17.95L14.5 20H20V14.5L17.96 16.54L14.83 13.41Z" fill="#323232"/>
</g>
<defs>
<clipPath id="clip0_147_1641">
<rect width="24" height="24" fill="white"/>
</clipPath>
</defs>
</svg>
